X:62
T: ICH UND MEIN JUNGES WEIB
N: F0159
O: Europa, Mitteleuropa, Deutschland
R: Bettler - Lied
M: 3/8
L: 1/16
K: C
 | C2C2C2 | B,3A,G,2 | A,2A,2B,2 | C3DC2
C2C2C2 | B,3A,G,2 | A,2A,2B,2 | C3DC2
E2E2E2 | F2F2F2 | D2D2D2 | G2G2G2
C4C2 | D4D2 | G,2A,2B,2 | C4z2

